X:1
T:Title
%%score 1 { 2 | 3 }
L:1/8
Q:1/4=93
M:4/4
K:E
V:1 treble nm="Grand Piano, Soprano"
V:2 treble nm="Choir Pad, Bass"
V:3 bass 
V:1
 [EG]>[FA] [GB]>[=G^A] [^GB]>[=Ac] [GB]2 | E>[DF] [EG]6 | [DF]>[EG] [DA]>[DA] [DA]>[DA] [DA]2 | %3
w: By~Benjamin~Franklin~Roe * * * * * *|||
 [Fd]>[Ec] [DB]6 | [EG]>[FA] [GB]>[=G^A] [^GB]>[=Ac] [GB]2 | [Ge]>[Bd] [Ac]>[A^B] [Ac]>[Ad] [Ae]2 | %6
w: |||
 [Ad]>[Ac] [GB]>[=G^A] [^GB]>[=Ac] [GB]2 | [EG]>[DF] E2 B,>C B,2 | [EG]>[EG] [DF]6 | %9
w: |||
 [CE]>[DF] [EG]6 | [EG]>[FA] [GB]2- [GB][GB] [EG]2 | E2 F6 | [EG]>[FB] [Ge]4- [Ge]>[GB] | %13
w: ||||
 [B=d]>[Gd] [Ac]6 | [=Gd]>[Gc] [^GB]4- [GB]>[EG] | [DF]>[DF] E>[K:bass]B, C>C B,2- | B,6 z2 |] %17
w: ||||
V:2
 B,>B, E>E E>E E2 | G,>B, B,2 B,>B, B,2 | B,>B, B,>B, B,>B, B,2 | ^A,>A, B,2 B,>B, B,2 | %4
 B,>B,[K:treble] E>E E>E E2 | E>E E>E E>D C2 | E>E E>E E>E E2 | B,>A, G,2 G,>A, G,2 | %8
 z4 B,>B, B,2 | z4 B,>B, B,2 | B,>B, E2- EE B,2 | ^A,2 B,2 B,>B, B,2 | z4 B,>B, B,>[K:treble]E | %13
 E>E E2 E>E E2 | z4 E>E E>[K:bass]B, | A,>A, G,>G, A,>A, G,2- | G,6 z2 |] %17
V:3
 E,>E, E,>E, E,>E, E,2 | E,>B,, E,2 E,>E, E,2 | A,>G, F,>F, F,>F, F,2 | F,>F, B,,2 B,,>B,, B,,2 | %4
 E,>E, E,>E, E,>E, E,2 | E,>E, A,>A, A,>A, A,2 | A,>A, E,>E, E,>A,, B,,2 | B,,>B,, E,4 z2 | %8
 z4 B,,>B,, B,,2 | z4 E,>E, E,2 | E,>E, E,2- E,E, E,2 | C,2 B,,2 B,,>B,, B,,2 | z4 E,>E, E,>E, | %13
 G,>E, A,2 A,>A, A,2 | z4 B,>B, B,2 | B,,>B,, E,6 | z8 |] %17

